Sweet-Rainbow/icons/mongodb-compass.svg

<?xml version="1.0" encoding="UTF-8" standalone="no"?>
<!-- Generator: Gravit.io -->

<svg
   xmlns:dc="http://purl.org/dc/elements/1.1/"
   xmlns:cc="http://creativecommons.org/ns#"
   xmlns:rdf="http://www.w3.org/1999/02/22-rdf-syntax-ns#"
   xmlns:svg="http://www.w3.org/2000/svg"
   xmlns="http://www.w3.org/2000/svg"
   xmlns:sodipodi="http://sodipodi.sourceforge.net/DTD/sodipodi-0.dtd"
   xmlns:inkscape="http://www.inkscape.org/namespaces/inkscape"
   style="isolation:isolate"
   viewBox="0 0 36 36"
   width="48"
   height="48"
   version="1.1"
   id="svg23"
   sodipodi:docname="mongodb-compass.svg"
   inkscape:version="0.92.4 (5da689c313, 2019-01-14)">
  <metadata
     id="metadata29">
    <rdf:RDF>
      <cc:Work
         rdf:about="">
        <dc:format>image/svg+xml</dc:format>
        <dc:type
           rdf:resource="http://purl.org/dc/dcmitype/StillImage" />
        <dc:title></dc:title>
      </cc:Work>
    </rdf:RDF>
  </metadata>
  <defs
     id="defs27" />
  <sodipodi:namedview
     pagecolor="#ffffff"
     bordercolor="#666666"
     borderopacity="1"
     objecttolerance="10"
     gridtolerance="10"
     guidetolerance="10"
     inkscape:pageopacity="0"
     inkscape:pageshadow="2"
     inkscape:window-width="640"
     inkscape:window-height="480"
     id="namedview25"
     showgrid="false"
     inkscape:zoom="29.365243"
     inkscape:cx="25.325443"
     inkscape:cy="32"
     inkscape:current-layer="svg23"
     units="px" />
  <linearGradient
     id="_lgradient_17"
     x1="0"
     y1="0.5"
     x2="1"
     y2="0.5"
     gradientTransform="matrix(1.658,0,0,7.167,23.462,31.242)"
     gradientUnits="userSpaceOnUse">
    <stop
       offset="0%"
       stop-opacity="1"
       style="stop-color:rgb(117,127,154)"
       id="stop2" />
    <stop
       offset="98.69565217391305%"
       stop-opacity="1"
       style="stop-color:rgb(215,221,232)"
       id="stop4" />
  </linearGradient>
  <linearGradient
     id="_lgradient_18"
     x1="0.18336116"
     y1="0.24917752"
     x2="0.9027437"
     y2="0.90347725"
     gradientTransform="matrix(13.385,0,0,25.132,17.331,9.694)"
     gradientUnits="userSpaceOnUse">
    <stop
       offset="2.608695652173913%"
       stop-opacity="1"
       style="stop-color:rgb(179,255,171)"
       id="stop9" />
    <stop
       offset="98.69565217391305%"
       stop-opacity="1"
       style="stop-color:rgb(18,255,247)"
       id="stop11" />
  </linearGradient>
  <linearGradient
     id="_lgradient_19"
     x1="0.99411762"
     y1="0.48015597"
     x2="0.00018059855"
     y2="0.45213065"
     gradientTransform="matrix(47.058,0,0,46.985,0.495,0.559)"
     gradientUnits="userSpaceOnUse">
    <stop
       offset="0%"
       stop-opacity="1"
       style="stop-color:rgb(17,153,142)"
       id="stop16" />
    <stop
       offset="99.1304347826087%"
       stop-opacity="1"
       style="stop-color:rgb(56,239,125)"
       id="stop18" />
  </linearGradient>
  <g
     id="g839"
     transform="matrix(0.76501411,0,0,0.76501411,-0.37869586,-0.39961803)">
    <path
       id="path7"
       d="m 24.099,31.242 c -0.082,0.271 -0.067,0.559 -0.108,0.837 -0.069,0.667 -0.12,1.338 -0.292,1.99 -0.063,0.276 -0.16,0.544 -0.237,0.816 0.187,0.362 0.248,0.762 0.289,1.16 0.086,0.463 0.107,0.936 0.144,1.404 0.03,0.234 -0.094,0.531 0.114,0.707 0.236,0.078 0.471,0.162 0.703,0.252 -0.03,-0.452 -0.076,-0.903 -0.063,-1.357 -0.019,-0.429 0.052,-0.854 0.085,-1.28 0.022,-0.207 0.022,-0.418 0.105,-0.612 0.063,-0.185 0.191,-0.342 0.28,-0.515 -0.137,-0.092 -0.266,-0.201 -0.385,-0.313 -0.103,-0.236 -0.235,-0.464 -0.319,-0.707 -0.204,-0.776 -0.327,-1.581 -0.316,-2.382 z"
       style="fill:url(#_lgradient_17)"
       inkscape:connector-curvature="0" />
    <path
       id="path14"
       d="m 24.024,26.571 c 0.03,-4.263 0.035,-8.526 0,-12.789 v 0 c 0.005,-1.283 0.043,-2.565 0,-3.843 v 0 c 0.366,0.654 0.652,1.37 1.203,1.908 2.073,1.918 3.688,4.303 4.581,6.945 0.971,2.539 1.176,5.357 0.554,7.995 -0.617,2.634 -2.036,5.092 -4.099,6.924 -0.439,0.254 -0.999,1.291 -1.483,0.667 -0.542,-0.841 -0.688,-1.887 -0.756,-2.857 v 0 c 0.077,-1.532 0.005,-3.065 0,-4.6 v 4.6 0.311 c -0.074,0.75 -0.157,1.5 -0.324,2.237 -0.121,0.453 -0.197,1.184 -0.706,0.435 -3.313,-2.617 -5.642,-6.563 -5.663,-10.759 0.017,-2.055 0.336,-4.141 1.145,-6.048 0.257,-0.826 0.659,-1.588 1.102,-2.332 0.634,-1.282 1.636,-2.347 2.649,-3.361 0.617,-0.719 1.716,-1.299 1.797,-2.31 v 0.245 3.843 z"
       style="fill:url(#_lgradient_18);fill-rule:evenodd"
       inkscape:connector-curvature="0" />
    <path
       id="path21"
       d="m 25.631,43.272 v 0 c -1.174,0.099 -2.049,1.135 -1.953,2.312 v 0 c 0.096,1.176 1.132,2.051 2.312,1.952 v 0 C 31.9,47.044 37.416,44.331 41.419,39.942 45.412,35.553 47.606,29.811 47.552,23.875 47.496,17.64 44.96,11.674 40.514,7.297 36.057,2.93 30.046,0.504 23.811,0.56 17.576,0.616 11.61,3.152 7.233,7.598 2.866,12.054 0.439,18.066 0.496,24.301 v 0 c 0.01,1.18 0.978,2.13 2.158,2.119 v 0 c 1.181,-0.01 2.13,-0.977 2.12,-2.158 v 0 C 4.727,19.161 6.715,14.244 10.287,10.597 13.869,6.96 18.748,4.884 23.85,4.838 c 5.101,-0.046 10.018,1.941 13.665,5.513 3.637,3.582 5.713,8.462 5.759,13.563 0.044,4.855 -1.742,9.556 -5.015,13.147 -3.272,3.591 -7.787,5.803 -12.628,6.211 z M 7.058,33.194 v 0 C 6.499,32.154 5.202,31.763 4.162,32.321 v 0 C 3.122,32.88 2.731,34.177 3.29,35.217 v 0 c 2.382,4.428 6.126,7.988 10.669,10.139 v 0 c 1.067,0.51 2.345,0.057 2.852,-1.01 v 0 c 0.507,-1.067 0.052,-2.347 -1.015,-2.857 v 0 C 12.069,39.726 9.016,36.823 7.058,33.194 Z"
       style="fill:url(#_lgradient_19);fill-rule:evenodd"
       inkscape:connector-curvature="0" />
  </g>
</svg>

<?xml version="1.0" encoding="UTF-8" standalone="no"?><!-- Generator: Gravit.io --><svg xmlns="http://www.w3.org/2000/svg" xmlns:xlink="http://www.w3.org/1999/xlink" style="isolation:isolate" viewBox="0 0 48 48" width="48pt" height="48pt"><linearGradient id="_lgradient_17" x1="0" y1="0.5" x2="1" y2="0.5" gradientTransform="matrix(1.658,0,0,7.167,23.462,31.242)" gradientUnits="userSpaceOnUse"><stop offset="0%" stop-opacity="1" style="stop-color:rgb(117,127,154)"/><stop offset="98.69565217391305%" stop-opacity="1" style="stop-color:rgb(215,221,232)"/></linearGradient><path d=" M 24.099 31.242 C 24.017 31.513 24.032 31.801 23.991 32.079 C 23.922 32.746 23.871 33.417 23.699 34.069 C 23.636 34.345 23.539 34.613 23.462 34.885 C 23.649 35.247 23.71 35.647 23.751 36.045 C 23.837 36.508 23.858 36.981 23.895 37.449 C 23.925 37.683 23.801 37.98 24.009 38.156 C 24.245 38.234 24.48 38.318 24.712 38.408 C 24.682 37.956 24.636 37.505 24.649 37.051 C 24.63 36.622 24.701 36.197 24.734 35.771 C 24.756 35.564 24.756 35.353 24.839 35.159 C 24.902 34.974 25.03 34.817 25.119 34.644 C 24.982 34.552 24.853 34.443 24.734 34.331 C 24.631 34.095 24.499 33.867 24.415 33.624 C 24.211 32.848 24.088 32.043 24.099 31.242 L 24.099 31.242 Z " fill="url(#_lgradient_17)"/><linearGradient id="_lgradient_18" x1="0.18336115895060273" y1="0.24917751794896525" x2="0.9027436828643176" y2="0.9034772483231972" gradientTransform="matrix(13.385,0,0,25.132,17.331,9.694)" gradientUnits="userSpaceOnUse"><stop offset="2.608695652173913%" stop-opacity="1" style="stop-color:rgb(179,255,171)"/><stop offset="98.69565217391305%" stop-opacity="1" style="stop-color:rgb(18,255,247)"/></linearGradient><path d=" M 24.024 26.571 C 24.054 22.308 24.059 18.045 24.024 13.782 L 24.024 13.782 C 24.029 12.499 24.067 11.217 24.024 9.939 L 24.024 9.939 C 24.39 10.593 24.676 11.309 25.227 11.847 C 27.3 13.765 28.915 16.15 29.808 18.792 C 30.779 21.331 30.984 24.149 30.362 26.787 C 29.745 29.421 28.326 31.879 26.263 33.711 C 25.824 33.965 25.264 35.002 24.78 34.378 C 24.238 33.537 24.092 32.491 24.024 31.521 L 24.024 31.521 C 24.101 29.989 24.029 28.456 24.024 26.921 L 24.024 31.521 L 24.024 31.832 C 23.95 32.582 23.867 33.332 23.7 34.069 C 23.579 34.522 23.503 35.253 22.994 34.504 C 19.681 31.887 17.352 27.941 17.331 23.745 C 17.348 21.69 17.667 19.604 18.476 17.697 C 18.733 16.871 19.135 16.109 19.578 15.365 C 20.212 14.083 21.214 13.018 22.227 12.004 C 22.844 11.285 23.943 10.705 24.024 9.694 L 24.024 9.939 L 24.024 13.782 L 24.024 26.571 Z " fill-rule="evenodd" fill="url(#_lgradient_18)"/><linearGradient id="_lgradient_19" x1="0.9941176470588236" y1="0.4801559760374085" x2="0.00018059855521146417" y2="0.45213064394988733" gradientTransform="matrix(47.058,0,0,46.985,0.495,0.559)" gradientUnits="userSpaceOnUse"><stop offset="0%" stop-opacity="1" style="stop-color:rgb(17,153,142)"/><stop offset="99.1304347826087%" stop-opacity="1" style="stop-color:rgb(56,239,125)"/></linearGradient><path d=" M 25.631 43.272 L 25.631 43.272 C 24.457 43.371 23.582 44.407 23.678 45.584 L 23.678 45.584 C 23.774 46.76 24.81 47.635 25.99 47.536 L 25.99 47.536 C 31.9 47.044 37.416 44.331 41.419 39.942 C 45.412 35.553 47.606 29.811 47.552 23.875 C 47.496 17.64 44.96 11.674 40.514 7.297 C 36.057 2.93 30.046 0.504 23.811 0.56 C 17.576 0.616 11.61 3.152 7.233 7.598 C 2.866 12.054 0.439 18.066 0.496 24.301 L 0.496 24.301 C 0.506 25.481 1.474 26.431 2.654 26.42 L 2.654 26.42 C 3.835 26.41 4.784 25.443 4.774 24.262 L 4.774 24.262 C 4.727 19.161 6.715 14.244 10.287 10.597 C 13.869 6.96 18.748 4.884 23.85 4.838 C 28.951 4.792 33.868 6.779 37.515 10.351 C 41.152 13.933 43.228 18.813 43.274 23.914 C 43.318 28.769 41.532 33.47 38.259 37.061 C 34.987 40.652 30.472 42.864 25.631 43.272 Z  M 7.058 33.194 L 7.058 33.194 C 6.499 32.154 5.202 31.763 4.162 32.321 L 4.162 32.321 C 3.122 32.88 2.731 34.177 3.29 35.217 L 3.29 35.217 C 5.672 39.645 9.416 43.205 13.959 45.356 L 13.959 45.356 C 15.026 45.866 16.304 45.413 16.811 44.346 L 16.811 44.346 C 17.318 43.279 16.863 41.999 15.796 41.489 L 15.796 41.489 C 12.069 39.726 9.016 36.823 7.058 33.194 Z " fill-rule="evenodd" fill="url(#_lgradient_19)"/></svg>
